!!!COM: Charles Gounod
!!!CNT: Francais
!!!TXO: Francais
!!!OTL: Cre/puscule
!!!LYR: Anon.
!!!ODT: 1865/
!!!ENC: Jacob Pegg
!!!YOR: Romantic French Song 1830-1870 -David Tunley, ed.,
!!!YOR: New York: Garland Publishing, Inc., 1995, Vol. 5
!!NB: Vocal melody and text only encoded.
!!NB: First instance of melodic material only encoded.
**kern	**silbe
*clef G2	*
*k[b-e-a-]	*
*M6/8	*
*MM100	*
!!Andante moderato
!!created: 6/5/03 21:13
!!proofed and posted: 6/5/03 21:24
!!edit time: 11 min.
=2	=2
4r	.
8r	.
{4cc	{Quand
8cc	sur
=3	=3
4dd	la
8dd	col-
4g	-li-
8g}	-ne,}
=4	=4
{4g	{Seul
8cc	je
4ee-	vais
8dd	mas-
=5	=5
[2.cc	-seoir!
=6	=6
8cc]}	|}
8r	.
8r	.
4r	.
8r	.
!!mm. 7-9 written repeat
=10	=10
4r	.
8r	.
{4dd	{Dis!
8dd	a-
=11	=11
4een	-lors
8ff	ne
(8een	sais~
8dd)	|
8cc	~tu
=12	=12
4cc}	pas?}
8r	.
{4ff	{Car
8een	mon
=13	=13
4een	coeur
8dd	en-
(8dd	-tend
8cc)	|
8bn	tout
=14	=14
4.gg	bas
(8cc	Mur-
8bn)	|
8an	-mu-
=15	=15
4g	-rer
8cc	ta
(8cc	voix
8bn)	|
8cc	di-
=16	=16
([4.een	-vi-
4een]	|
8dd)	|
=17	=17
4cc}	-ne!}
8r	.
4r	.
8r	.
*-	*-
